svgs/light/raygun.svg

<svg xmlns="http://www.w3.org/2000/svg" viewBox="0 0 576 512"><!--! Font Awesome Pro 6.3.0 by @fontawesome - https://fontawesome.com License - https://fontawesome.com/license (Commercial License) Copyright 2023 Fonticons, Inc. --><path d="M112 160c-8.875 0-15.99 7.119-15.99 15.99c0 8.875 7.117 15.99 15.99 15.99s15.99-7.118 15.99-15.99C127.1 167.1 120.9 160 112 160zM552.9 97.78l-96 48C451.4 148.4 448 154 448 160h-32V79.99c0-8.875-7.125-16-16-16S384 71.16 384 80.03v80h-32V48.03c0-8.875-7.125-16-16-16S320 39.16 320 48.03v49.75c-21-21.63-49.88-33.78-80-33.78L195.4 64.03L54.5 1.406C49.5-.844 43.88-.344 39.25 2.656C34.75 5.531 32 10.66 32 16.03v81.88C11.5 118.7 0 146.8 0 176c0 60.5 48 109.4 108 111.6l-69.5 120.4c-6.375 11-8.125 24.13-4.875 36.38C37 456.8 45 467.3 56 473.5l55.5 32c11 6.375 24.12 8.125 36.38 4.875C160.2 507.2 170.8 499 177 488l127.4-220.6C309.1 263.5 315.2 259.2 320 254.3v49.75c0 8.875 7.125 16 16 16S352 312.9 352 304V192h32v80C384 280.9 391.1 288 400 288S416 280.9 416 272V192h32c0 6 3.375 11.5 8.875 14.25l96 48c4.875 2.5 10.88 2.25 15.5-.625C573.1 250.8 576 245.5 576 240V112c0-5.5-2.875-10.62-7.625-13.62C563.8 95.53 557.8 95.28 552.9 97.78zM64 40.66l52.63 23.38L112 64.01C95.38 64.14 79 67.86 64 75.23V40.66zM149.4 471.9C145.6 478.6 136.2 483 127.5 477.9l-55.38-32c-9.013-5.107-9.729-15.51-6-21.88l78.63-136h110.7L149.4 471.9zM240 256h-128c-44.12 0-80-35.88-80-80s35.88-80 80-80h128c44.13 0 80 35.88 80 80S284.1 256 240 256zM544 214.2l-64-32V169.9l64-32V214.2zM176 160c-8.875 0-16 7.125-16 16c0 8.875 7.125 16 16 16S192 184.9 192 176C192 167.1 184.9 160 176 160zM240 160c-8.875 0-16 7.111-16 15.99c0 8.875 7.125 16.01 16 16.01S256 184.9 256 176C256 167.2 248.9 160 240 160z"/></svg>

<svg xmlns="http://www.w3.org/2000/svg" viewBox="0 0 576 512"><!-- Font Awesome Pro 6.0.0-alpha2 by @fontawesome - https://fontawesome.com License - https://fontawesome.com/license (Commercial License) --><path d="M112 160.032C103.125 160.032 96 167.157 96 176.032C96 184.908 103.125 192.033 112 192.033S128 184.908 128 176.032C128 167.157 120.875 160.032 112 160.032ZM552.875 97.782L456.875 145.782C451.375 148.407 448 154.032 448 160.032H416V80.032C416 71.157 408.875 64.032 400 64.032S384 71.157 384 80.032V160.032H352V48.031C352 39.156 344.875 32.031 336 32.031S320 39.156 320 48.031V97.782C299 76.157 270.125 64.032 240 64.032H195.375L54.5 1.406C49.5 -0.844 43.875 -0.344 39.25 2.656C34.75 5.531 32 10.656 32 16.031V97.907C11.5 118.657 0 146.782 0 176.032C0 236.533 48 285.408 108 287.658L38.5 408.034C32.125 419.034 30.375 432.16 33.625 444.41C37 456.785 45 467.285 56 473.535L111.5 505.535C122.5 511.91 135.625 513.66 147.875 510.41C160.25 507.16 170.75 499.035 177 488.035L304.375 267.408C310 263.533 315.25 259.158 320 254.283V304.034C320 312.909 327.125 320.034 336 320.034S352 312.909 352 304.034V192.033H384V272.033C384 280.908 391.125 288.033 400 288.033S416 280.908 416 272.033V192.033H448C448 198.033 451.375 203.533 456.875 206.283L552.875 254.283C557.75 256.783 563.75 256.533 568.375 253.658C573.125 250.783 576 245.533 576 240.033V112.032C576 106.532 573.125 101.407 568.375 98.407C563.75 95.532 557.75 95.282 552.875 97.782ZM64 40.656L116.625 64.032H112C95.375 64.157 79 67.907 64 75.282V40.656ZM149.375 471.91C145.595 478.581 136.201 483.011 127.5 477.91L72.125 445.91C63.112 440.802 62.396 430.396 66.125 424.035L144.75 288.033H255.5L149.375 471.91ZM240 256.033H112C67.875 256.033 32 220.158 32 176.032S67.875 96.032 112 96.032H240C284.125 96.032 320 131.907 320 176.032S284.125 256.033 240 256.033ZM544 214.158L480 182.158V169.907L544 137.907V214.158ZM176 160.032C167.125 160.032 160 167.157 160 176.032C160 184.908 167.125 192.033 176 192.033S192 184.908 192 176.032C192 167.157 184.875 160.032 176 160.032ZM240 160.032C231.125 160.032 224 167.157 224 176.032C224 184.908 231.125 192.033 240 192.033S256 184.908 256 176.032C256 167.157 248.875 160.032 240 160.032Z"/></svg>
